X:853
T:Troop JBut.848, A
B:John Buttrey MS, poss. Lincolnshire, early 19thC
S:https://buttreymilitarysocialtunes1800.wordpress.com/
Z:Village Music Project 2019 Taz Tarry
Q:3/8=50
M:3/8
L:1/8
K:G
D;|G/F/G/A/B/c/|ddB|ccA|BA/B/c/B/|G/F/G/A/B/c/|ddB|cAd|G2:|
|:D|BB/A/B|cc/B/c|AA/G/A|dd/e/d|G/F/G/A/B/c/|ddB|cAd|G2:|
|:B|ddB|GGD|ccA|FFD|ddB|GGD|E/c/B/A/G/F/|G2:|

